Papirus/16x16/actions/im-user-busy.svg

<?xml version="1.0" encoding="UTF-8" standalone="no"?>
<svg
   xmlns:dc="http://purl.org/dc/elements/1.1/"
   xmlns:cc="http://creativecommons.org/ns#"
   xmlns:rdf="http://www.w3.org/1999/02/22-rdf-syntax-ns#"
   xmlns:svg="http://www.w3.org/2000/svg"
   xmlns="http://www.w3.org/2000/svg"
   height="16"
   width="16"
   version="1.1"
   id="svg2"
   viewBox="0 0 16 16">
  <metadata
     id="metadata20">
    <rdf:RDF>
      <cc:Work
         rdf:about="">
        <dc:format>image/svg+xml</dc:format>
        <dc:type
           rdf:resource="http://purl.org/dc/dcmitype/StillImage" />
        <dc:title></dc:title>
      </cc:Work>
    </rdf:RDF>
  </metadata>
  <defs
     id="defs18" />
  <path
     style="opacity:0.5;fill:#000000;fill-opacity:1"
     d="M 8,0 A 3.99999,4.00003 0 0 0 4,4 3.99999,4.00003 0 0 0 8,8 3.99999,4.00003 0 0 0 12,4 3.99999,4.00003 0 0 0 8,0 Z M 8,8.988281 C 3.9720212,8.993081 0.5035081,12.003572 0,16 l 9.712891,0 C 8.678574,15.173381 8,13.917879 8,12.5 8,11.096525 8.66527,9.840801 9.681641,9.013672 8.943079,8.999137 8.187296,8.989685 8,8.988281 Z"
     id="path4137" />
  <path
     id="path4267"
     d="M 12.5,9 A 3.5,3.5 0 0 0 9,12.5 3.5,3.5 0 0 0 12.5,16 3.5,3.5 0 0 0 16,12.5 3.5,3.5 0 0 0 12.5,9 Z m -0.5,1 1,0 0,2 2,0 0,1 -3,0 0,-1 0,-2 z"
     style="opacity:0.5;fill:#000000;fill-opacity:1" />
</svg>

<?xml version="1.0" encoding="UTF-8" standalone="no"?>
<svg id="svg2" xmlns:rdf="http://www.w3.org/1999/02/22-rdf-syntax-ns#" xmlns="http://www.w3.org/2000/svg" height="16" viewBox="0 0 16 16" width="16" version="1.1" xmlns:cc="http://creativecommons.org/ns#" xmlns:dc="http://purl.org/dc/elements/1.1/">
 <metadata id="metadata20">
  <rdf:RDF>
   <cc:Work rdf:about="">
    <dc:format>image/svg+xml</dc:format>
    <dc:type rdf:resource="http://purl.org/dc/dcmitype/StillImage"/>
    <dc:title/>
   </cc:Work>
  </rdf:RDF>
 </metadata>
 <path id="path4137" opacity=".5" d="m8 0a4 4 0 0 0 -4 4 4 4 0 0 0 4 4 4 4 0 0 0 4 -4 4 4 0 0 0 -4 -4zm0 8.9883c-4.028 0.0048-7.4965 3.0157-8 7.0117h9.7129c-1.0343-0.827-1.7129-2.082-1.7129-3.5 0-1.403 0.6653-2.6592 1.6816-3.4863-0.7385-0.0146-1.4943-0.024-1.6816-0.0254z"/>
 <path id="path4267" opacity=".5" d="m12.5 9a3.5 3.5 0 0 0 -3.5 3.5 3.5 3.5 0 0 0 3.5 3.5 3.5 3.5 0 0 0 3.5 -3.5 3.5 3.5 0 0 0 -3.5 -3.5zm-0.5 1h1v2h2v1h-3v-1-2z"/>
</svg>
